src/assets/Icons/Logo.svg

<?xml version="1.0" encoding="UTF-8"?>
<svg viewBox="0 0 133 34" xmlns="http://www.w3.org/2000/svg">
<path d="m86.263 16.146h4.6607v3.0528h0.069c0.2072-0.477 0.5179-0.954 0.9322-1.3992 0.3797-0.4452 0.8285-0.795 1.3464-1.113 0.4833-0.318 1.0357-0.5406 1.6226-0.7314 0.5524-0.159 1.1738-0.2226 1.7952-0.2544 0.3107 0 0.656 0.0636 1.0703 0.159v4.1976c-0.2417-0.0318-0.5179-0.0636-0.8286-0.0954-0.3452-0.0318-0.656-0.0636-0.9321-0.0636-0.8977 0-1.6572 0.159-2.2786 0.4134-0.6214 0.2862-1.1393 0.6678-1.519 1.1448-0.3798 0.477-0.656 1.0176-0.7941 1.6537-0.1726 0.636-0.2417 1.3356-0.2417 2.067v7.4836h-4.9023v-16.515z" fill="#10239E"/>
<path d="m79.662 22.601c-0.2417-1.1449-0.656-2.0035-1.2429-2.6077-0.5869-0.5724-1.4845-0.8586-2.6583-0.8904-0.794 0-1.45 0.1272-1.9678 0.3816-0.5179 0.2544-0.9322 0.5406-1.2429 0.8904-0.3107 0.3816-0.5178 0.7632-0.6559 1.1448-0.1381 0.4134-0.2072 0.7632-0.2072 1.0813h7.975zm-7.975 2.862c0.0691 1.4628 0.4488 2.544 1.2084 3.18 0.725 0.6678 1.7952 0.9858 3.1761 0.9858 0.9667 0 1.8298-0.2226 2.5548-0.6678 0.6904-0.4452 1.1393-0.954 1.3119-1.4628h4.3154c-0.6904 1.9716-1.7607 3.4026-3.1761 4.2294-1.45 0.8586-3.1762 1.272-5.1786 1.272-1.4155 0-2.6928-0.1908-3.7976-0.6042-1.1393-0.4134-2.1059-1.0176-2.8654-1.7808-0.7941-0.7632-1.4155-1.6536-1.8298-2.7348-0.4143-1.0494-0.6214-2.226-0.6214-3.498 0-1.2084 0.2071-2.3533 0.6559-3.4345 0.4143-1.0494 1.0357-1.9716 1.8643-2.7348 0.794-0.7632 1.7607-1.3992 2.8655-1.8444 1.1047-0.4452 2.3476-0.6678 3.7285-0.6678 1.5191 0 2.8309 0.2862 3.9702 0.8268 1.1048 0.5406 2.0369 1.272 2.7619 2.1624 0.725 0.9222 1.2429 1.9716 1.5881 3.1164 0.3107 1.1767 0.4143 2.3851 0.3452 3.6571h-12.877z" fill="#10239E"/>
<path d="m60.762 32.661h-5.4547l-6.0793-16.515h5.1441l3.763 11.225h0.0691l3.763-11.225h4.8679l-6.0731 16.515z" fill="#10239E"/>
<path d="m44.318 22.601c-0.2416-1.1449-0.6559-2.0035-1.2428-2.6077-0.5869-0.5724-1.4845-0.8586-2.6583-0.8904-0.7941 0-1.45 0.1272-1.9679 0.3816-0.5178 0.2544-0.9321 0.5406-1.2428 0.8904-0.3107 0.3816-0.5179 0.7632-0.656 1.1448-0.1381 0.4134-0.2071 0.7632-0.2071 1.0813h7.9749zm-7.9749 2.862c0.069 1.4628 0.4488 2.544 1.2083 3.18 0.725 0.6678 1.7952 0.9858 3.1762 0.9858 0.9666 0 1.8297-0.2226 2.5547-0.6678 0.6905-0.4452 1.1393-0.954 1.3119-1.4628h4.3155c-0.6905 1.9716-1.7607 3.4026-3.1762 4.2294-1.45 0.8586-3.1762 1.272-5.1785 1.272-1.4155 0-2.6929-0.1908-3.7976-0.6042-1.1393-0.4134-2.106-1.0176-2.8655-1.7808-0.794-0.7632-1.4155-1.6536-1.8297-2.7348-0.4143-1.0494-0.6215-2.226-0.6215-3.498 0-1.2084 0.2072-2.3533 0.656-3.4345 0.4143-1.0494 1.0357-1.9716 1.8643-2.7348 0.794-0.7632 1.7607-1.3992 2.8654-1.8444 1.1048-0.4452 2.3476-0.6678 3.7286-0.6678 1.519 0 2.8309 0.2862 3.9702 0.8268 1.1047 0.5406 2.0369 1.272 2.7619 2.1624 0.725 0.9222 1.2428 1.9716 1.588 3.1164 0.3108 1.1767 0.4143 2.3851 0.3453 3.6571h-12.877z" fill="#10239E"/>
<path d="m24.857 9.1285h4.8333v23.532h-4.8333v-23.532z" fill="#10239E"/>
<path d="m17.547 17.225c-0.1038-0.5671-0.3115-1.0711-0.623-1.5437-0.3461-0.4725-0.7268-0.882-1.2113-1.26-0.4845-0.3466-1.0383-0.6301-1.6613-0.8191s-1.246-0.2835-1.9035-0.315c-1.246 0-2.2843 0.2205-3.115 0.6615-0.86525 0.4411-1.5574 1.0081-2.0766 1.7326-0.55376 0.7246-0.93447 1.5437-1.1767 2.4572-0.24227 0.9451-0.3461 1.8901-0.3461 2.8667 0 0.9451 0.10383 1.8902 0.3461 2.7722 0.24227 0.8821 0.62298 1.7011 1.1767 2.3942 0.51916 0.7245 1.2114 1.2916 2.0766 1.7326 0.83064 0.441 1.869 0.63 3.115 0.63 1.6612 0 2.9418-0.441 3.8763-1.386 0.9345-0.9136 1.5228-2.1422 1.7305-3.6543h5.2607c-0.1384 1.4176-0.5191 2.6777-1.0729 3.8118-0.5884 1.134-1.3498 2.1106-2.2843 2.8982-0.969 0.819-2.0766 1.4176-3.3225 1.8271-1.2806 0.441-2.665 0.63-4.1878 0.63-1.9036 0-3.5995-0.2835-5.1224-0.882-1.5228-0.5986-2.7688-1.4176-3.8071-2.4887-1.0383-1.0396-1.8343-2.2682-2.3881-3.6858-0.55376-1.4176-0.83064-2.9612-0.83064-4.5993 0-1.6696 0.27688-3.2132 0.83064-4.6623 0.55376-1.4491 1.3498-2.7092 2.3881-3.7803 1.0383-1.0396 2.2843-1.8901 3.8071-2.5202 1.5228-0.5985 3.2188-0.88202 5.1224-0.91352 1.3497 0 2.6303 0.18901 3.8417 0.53554 1.2113 0.37798 2.2842 0.88208 3.2533 1.5751 0.9691 0.6931 1.7651 1.5121 2.3881 2.5202s1.0037 2.1737 1.1768 3.4653h-5.2608z" fill="#10239E"/>
<path d="m127.75 11.255h4.243v4.5618h-4.243v8.7169c0 2.9668 0.184 2.958 0.553 3.3056 0.368 0.3475 1.104 0.5213 2.209 0.5213 0.368 0.0435 0.691 0 1.059-0.0434 0.322 0 0.767-0.2461 0.997-0.4779v4.779c-0.575 0.2453-1.227 0.5213-1.872 0.5213-0.69 0.0435-1.335 0.0435-1.979 0.0435-0.043 0-0.772 0-1.079-0.0435-0.747-0.1058-1.859-0.4996-2.55-0.8906-0.383-0.2172-1.381-1.1947-1.496-1.6292-0.345-0.5431-0.537-1.6075-0.537-2.7371v-12.066h-4.066v-4.5618h4.066v-7.603h4.695v7.603z" fill="#10239E"/>
<path d="m98.737 15.817h3.2227v16.845h5.155v-16.845h3.821v-4.5618h-3.821v-0.391c0-0.91239 0.184-1.7788 0.552-2.1698 0.369-0.39101 1.013-0.60824 1.934-0.60824 0.828 0 1.611 0.04345 2.393 0.13034v-4.5643l-1.749-1e-5 -1.726 1e-5c-2.187 0-3.913 1.0524-4.948 2.0637-1.335 1.3034-1.611 2.8022-1.611 4.7574l-1e-3 0.782h-3.2217v4.5618zm18.873 1.955h-5.017v14.89h5.017v-14.89z" clip-rule="evenodd" fill="#10239E" fill-rule="evenodd"/>
<path d="m117.61 13.579c0 1.3234-1.093 2.3962-2.416 2.3962-1.324 0-2.417-1.0728-2.417-2.3962 0-1.3235 1.093-2.3963 2.417-2.3963 1.323 0 2.416 1.0728 2.416 2.3963z" fill="#40A9FF"/>
</svg>

<svg width="133" height="34" viewBox="0 0 133 34" fill="none" xmlns="http://www.w3.org/2000/svg">
<path d="M86.2627 16.1457H90.9234V19.1985H90.9924C91.1996 18.7215 91.5103 18.2445 91.9246 17.7993C92.3043 17.3541 92.7531 17.0043 93.271 16.6863C93.7543 16.3683 94.3067 16.1457 94.8936 15.9549C95.446 15.7959 96.0674 15.7323 96.6888 15.7005C96.9995 15.7005 97.3448 15.7641 97.7591 15.8595V20.0571C97.5174 20.0253 97.2412 19.9935 96.9305 19.9617C96.5853 19.9299 96.2745 19.8981 95.9984 19.8981C95.1007 19.8981 94.3412 20.0571 93.7198 20.3115C93.0984 20.5977 92.5805 20.9793 92.2008 21.4563C91.821 21.9333 91.5448 22.4739 91.4067 23.11C91.2341 23.746 91.165 24.4456 91.165 25.177V32.6606H86.2627V16.1457Z" fill="#10239E"/>
<path d="M79.6615 22.6012C79.4198 21.4563 79.0055 20.5977 78.4186 19.9935C77.8317 19.4211 76.9341 19.1349 75.7603 19.1031C74.9663 19.1031 74.3103 19.2303 73.7925 19.4847C73.2746 19.7391 72.8603 20.0253 72.5496 20.3751C72.2389 20.7567 72.0318 21.1383 71.8937 21.5199C71.7556 21.9333 71.6865 22.2831 71.6865 22.6012H79.6615ZM71.6865 25.4632C71.7556 26.926 72.1353 28.0072 72.8949 28.6432C73.6199 29.311 74.6901 29.629 76.071 29.629C77.0377 29.629 77.9008 29.4064 78.6258 28.9612C79.3162 28.516 79.7651 28.0072 79.9377 27.4984H84.2531C83.5627 29.47 82.4924 30.901 81.077 31.7278C79.627 32.5864 77.9008 32.9998 75.8984 32.9998C74.4829 32.9998 73.2056 32.809 72.1008 32.3956C70.9615 31.9822 69.9949 31.378 69.2354 30.6148C68.4413 29.8516 67.8199 28.9612 67.4056 27.88C66.9913 26.8306 66.7842 25.654 66.7842 24.382C66.7842 23.1736 66.9913 22.0287 67.4401 20.9475C67.8544 19.8981 68.4758 18.9759 69.3044 18.2127C70.0984 17.4495 71.0651 16.8135 72.1699 16.3683C73.2746 15.9231 74.5175 15.7005 75.8984 15.7005C77.4175 15.7005 78.7293 15.9867 79.8686 16.5273C80.9734 17.0679 81.9055 17.7993 82.6305 18.6897C83.3555 19.6119 83.8734 20.6613 84.2186 21.8061C84.5293 22.9828 84.6329 24.1912 84.5638 25.4632H71.6865Z" fill="#10239E"/>
<path d="M60.7615 32.6606H55.3068L49.2275 16.1457H54.3716L58.1346 27.3711H58.2037L61.9667 16.1457H66.8346L60.7615 32.6606Z" fill="#10239E"/>
<path d="M44.3177 22.6012C44.0761 21.4563 43.6618 20.5977 43.0749 19.9935C42.488 19.4211 41.5904 19.1349 40.4166 19.1031C39.6225 19.1031 38.9666 19.2303 38.4487 19.4847C37.9309 19.7391 37.5166 20.0253 37.2059 20.3751C36.8952 20.7567 36.688 21.1383 36.5499 21.5199C36.4118 21.9333 36.3428 22.2831 36.3428 22.6012H44.3177ZM36.3428 25.4632C36.4118 26.926 36.7916 28.0072 37.5511 28.6432C38.2761 29.311 39.3463 29.629 40.7273 29.629C41.6939 29.629 42.557 29.4064 43.282 28.9612C43.9725 28.516 44.4213 28.0072 44.5939 27.4984H48.9094C48.2189 29.47 47.1487 30.901 45.7332 31.7278C44.2832 32.5864 42.557 32.9998 40.5547 32.9998C39.1392 32.9998 37.8618 32.809 36.7571 32.3956C35.6178 31.9822 34.6511 31.378 33.8916 30.6148C33.0976 29.8516 32.4761 28.9612 32.0619 27.88C31.6476 26.8306 31.4404 25.654 31.4404 24.382C31.4404 23.1736 31.6476 22.0287 32.0964 20.9475C32.5107 19.8981 33.1321 18.9759 33.9607 18.2127C34.7547 17.4495 35.7214 16.8135 36.8261 16.3683C37.9309 15.9231 39.1737 15.7005 40.5547 15.7005C42.0737 15.7005 43.3856 15.9867 44.5249 16.5273C45.6296 17.0679 46.5618 17.7993 47.2868 18.6897C48.0118 19.6119 48.5296 20.6613 48.8748 21.8061C49.1856 22.9828 49.2891 24.1912 49.2201 25.4632H36.3428Z" fill="#10239E"/>
<path d="M24.8569 9.12848H29.6902V32.6606H24.8569V9.12848Z" fill="#10239E"/>
<path d="M17.5473 17.2246C17.4435 16.6575 17.2358 16.1535 16.9243 15.6809C16.5782 15.2084 16.1975 14.7989 15.713 14.4209C15.2285 14.0743 14.6747 13.7908 14.0517 13.6018C13.4287 13.4128 12.8057 13.3183 12.1482 13.2868C10.9022 13.2868 9.86388 13.5073 9.03324 13.9483C8.16799 14.3894 7.47579 14.9564 6.95663 15.6809C6.40287 16.4055 6.02216 17.2246 5.77989 18.1381C5.53762 19.0832 5.43379 20.0282 5.43379 21.0048C5.43379 21.9499 5.53762 22.895 5.77989 23.777C6.02216 24.6591 6.40287 25.4781 6.95663 26.1712C7.47579 26.8957 8.16799 27.4628 9.03324 27.9038C9.86388 28.3448 10.9022 28.5338 12.1482 28.5338C13.8094 28.5338 15.09 28.0928 16.0245 27.1478C16.959 26.2342 17.5473 25.0056 17.755 23.4935H23.0157C22.8773 24.9111 22.4966 26.1712 21.9428 27.3053C21.3544 28.4393 20.593 29.4159 19.6585 30.2035C18.6895 31.0225 17.5819 31.6211 16.336 32.0306C15.0554 32.4716 13.671 32.6606 12.1482 32.6606C10.2446 32.6606 8.5487 32.3771 7.02585 31.7786C5.50301 31.18 4.25704 30.361 3.21874 29.2899C2.18044 28.2503 1.3844 27.0217 0.830643 25.6041C0.276881 24.1865 0 22.6429 0 21.0048C0 19.3352 0.276881 17.7916 0.830643 16.3425C1.3844 14.8934 2.18044 13.6333 3.21874 12.5622C4.25704 11.5226 5.50301 10.6721 7.02585 10.042C8.5487 9.4435 10.2446 9.15998 12.1482 9.12848C13.4979 9.12848 14.7785 9.31749 15.9899 9.66402C17.2012 10.042 18.2741 10.5461 19.2432 11.2391C20.2123 11.9322 21.0083 12.7512 21.6313 13.7593C22.2543 14.7674 22.635 15.933 22.8081 17.2246H17.5473Z" fill="#10239E"/>
<path d="M127.752 11.2548H131.995V15.8166H127.752V24.5335C127.752 27.5003 127.936 27.4915 128.305 27.8391C128.673 28.1866 129.409 28.3604 130.514 28.3604C130.882 28.4039 131.205 28.3604 131.573 28.317C131.895 28.317 132.34 28.0709 132.57 27.8391V32.6181C131.995 32.8634 131.343 33.1394 130.698 33.1394C130.008 33.1829 129.363 33.1829 128.719 33.1829C128.676 33.1829 127.947 33.1829 127.64 33.1394C126.893 33.0336 125.781 32.6398 125.09 32.2488C124.707 32.0316 123.709 31.0541 123.594 30.6196C123.249 30.0765 123.057 29.0121 123.057 27.8825V15.8166H118.991V11.2548H123.057V3.65176H127.752V11.2548Z" fill="#10239E"/>
<path fill-rule="evenodd" clip-rule="evenodd" d="M98.7373 15.8166H101.96V32.6615H107.115V15.8166H110.936L110.936 11.2548H107.115L107.115 10.8638C107.115 9.95141 107.299 9.08499 107.667 8.69398C108.036 8.30297 108.68 8.08574 109.601 8.08574C110.429 8.08574 111.212 8.12919 111.994 8.21608V3.65177L110.245 3.65176L108.519 3.65177C106.332 3.65177 104.606 4.70421 103.571 5.71544C102.236 7.01881 101.96 8.51769 101.96 10.4728L101.959 11.2548H98.7373L98.7373 15.8166ZM117.61 17.7716H112.593V32.6615H117.61V17.7716Z" fill="#10239E"/>
<path d="M117.61 13.5792C117.61 14.9026 116.517 15.9754 115.194 15.9754C113.87 15.9754 112.777 14.9026 112.777 13.5792C112.777 12.2557 113.87 11.1829 115.194 11.1829C116.517 11.1829 117.61 12.2557 117.61 13.5792Z" fill="#40A9FF"/>
</svg>
